X:1
T:Title
%%score ( 1 2 ) 3 ( 4 5 )
L:1/8
Q:1/4=120
M:6/8
K:C
V:1 treble nm="Stem" snm="Stm."
V:2 treble 
V:3 treble nm="Piano" snm="Pno."
V:4 bass nm="Piano" snm="Pno."
V:5 bass 
V:1
 G2 G AGF | E2 F G3 | A2 B cBA | G3 .E3 | G2 G AGF | E2 F G3 | A2 B cBA | G3 .E3 | _G2 G =G2 G | %9
 ABA G3 | _GdG =G2 G | A2 B G3 | c2 c x x/ x/4 d/4c | B2 A G3 | A2 A x x/ x/4 B/4A | G2 F E3 | %16
 c2 c x x/ x/4 d/4c | B2 A G3 | F2 G AFD | B,2 D .C3 | z6 | z6 | z6 | z6 | G2 G AGF | E2 F G3 | %26
 A2 B cBA | G3 .E3 | G2 G AGF | E2 F G3 | A2 B cBA | G3 .E3 | _G2 G =G2 G | ABA G3 | _GdG =G2 G | %35
 A2 B G3 | c2 c x x/ x/4 d/4c | B2 A G3 | A2 A x x/ x/4 B/4A | G2 F E3 | c2 c x x/ x/4 d/4c | %41
 B2 A G3 | F2 G AFD | B,2 D .C3 | z6 | z6 | z6 | z6 :| %48
V:2
 x6 | x6 | x6 | x6 | x6 | x6 | x6 | x6 | x6 | x6 | x6 | x6 | x3 .B3 | x6 | x3 .G3 | x6 | x3 .B3 | %17
 x6 | x6 | x6 | x6 | x6 | x6 | x6 | x6 | x6 | x6 | x6 | x6 | x6 | x6 | x6 | x6 | x6 | x6 | x6 | %36
 x3 .B3 | x6 | x3 .G3 | x6 | x3 .B3 | x6 | x6 | x6 | x6 | x6 | x6 | x6 :| %48
V:3
 G,CE G,DF | G,CE G,CE | A,CF F,CF | G,CE G,CE | G,CE G,DF | G,CE G,CE | A,CF F,CF | G,CE G,CE | %8
 A,C_G B,D=G | CD_G B,D=G | A,C_G B,D=G | CD_G B,D=G | CGc D_AB | CFA CEG | A,CA G,CG | G,DF G,CE | %16
 CGc D_AB | CFA CEG | A,DF F,A,D | F,G,B, [E,C]2 c | BGc BGc | [Ace]3 [Bd]2 [Gc] | %22
 [GB]2 [FA] [B,G]2 [DF] | [B,DF]3 .[CE]3 | G,CE G,DF | G,CE G,CE | A,CF F,CF | G,CE G,CE | %28
 G,CE G,DF | G,CE G,CE | A,CF F,CF | G,CE G,CE | A,C_G B,D=G | CD_G B,D=G | A,C_G B,D=G | %35
 CD_G B,D=G | CGc D_AB | CFA CEG | A,CA G,CG | G,DF G,CE | CGc D_AB | CFA CEG | A,DF F,A,D | %43
 F,G,B, [E,C]2 c | BGc BGc | [Ace]3 [Bd]2 [Gc] | [GB]2 [FA] [B,G]2 [DF] | [B,DF]3 .[CE]3 :| %48
V:4
 C,3 B,,3 | C,6 | F,,3 A,,3 | C,6 | C,3 B,,3 | C,6 | F,,3 A,,3 | C,6 | D,6 | D,3 G,,2 B,, | D,6 | %11
 D,3 G,,3 | E,,3 E,3 | F,3 C,3 | F,3 E,3 | B,,3 C,3 | E,,3 E,3 | F,3 C,3 | F,,6 | G,,3 C,,2 [E,C] | %20
 [F,D]2 [E,C] [F,D]2 [E,C] | x3 x2 C- | C3 x3 | [C,G,]6 | C,3 B,,3 | C,6 | F,,3 A,,3 | C,6 | %28
 C,3 B,,3 | C,6 | F,,3 A,,3 | C,6 | D,6 | D,3 G,,2 B,, | D,6 | D,3 G,,3 | E,,3 E,3 | F,3 C,3 | %38
 F,3 E,3 | B,,3 C,3 | E,,3 E,3 | F,3 C,3 | F,,6 | G,,3 C,,2 [E,C] | [F,D]2 [E,C] [F,D]2 [E,C] | %45
 x3 x2 C- | C3 x3 | [C,G,]6 :| %48
V:5
 x6 | x6 | x6 | x6 | x6 | x6 | x6 | x6 | x6 | x6 | x6 | x6 | x6 | x6 | x6 | x6 | x6 | x6 | x6 | %19
 x6 | x6 | _G,3 =G,2 E, | F,3 G,3 | x6 | x6 | x6 | x6 | x6 | x6 | x6 | x6 | x6 | x6 | x6 | x6 | %35
 x6 | x6 | x6 | x6 | x6 | x6 | x6 | x6 | x6 | x6 | _G,3 =G,2 E, | F,3 G,3 | x6 :| %48

